X: 23286
T: Leaving Uist
R: waltz
M: 3/4
K: Eminor
e>d|B3 B A>G|A>GE2(3EFG|A3 c B2|e3 e d>e|
g3 a a>g|e>dB2B>A|G3 B A>G|E3 e e>d|
B3 B A>G|A>GE2(3EFG|A3 cB2|e3 e d>e|
g3 a a>g|e>dB2B>A|G3 B d>e|A4 a2|
a3 g a<b|a>ge2 e>B|d3 eg2|g4 a>g|
d>e g>a e>d|A>B d>e A>G|E G2 B A>G|E4 e>d|
B3 B A>G|A>GE2(3EFG|A3 c B2|e3 e d>e|
g3 a a>g|e>dB2B>A|G3 B d>e|A4||

